dist/img/svg/ic_heart.svg

<svg width="17" height="14" viewBox="0 0 17 14" xmlns="http://www.w3.org/2000/svg">
<path d="M12.4179 0C10.4831 0 9.17795 0.922881 8.49999 1.57094C7.82201 0.922881 6.51683 0 4.58202 0C1.91496 0 0 2.22156 0 4.88564C0 6.43438 0.67645 8.03469 1.95626 9.51358C3.3548 11.1298 5.45911 12.6171 8.21076 13.9344C8.3021 13.9781 8.40101 14 8.49999 14C8.59897 14 8.69788 13.9781 8.78922 13.9344C11.5408 12.6171 13.6452 11.1298 15.0437 9.51358C16.3235 8.03469 17 6.43438 17 4.88564C17 2.22323 15.0863 0 12.4179 0ZM14.0348 8.65903C12.8042 10.0811 10.943 11.41 8.49999 12.6112C6.057 11.41 4.1957 10.0811 2.96514 8.65903C1.8789 7.40378 1.32812 6.13423 1.32812 4.88564C1.32812 2.96949 2.63487 1.31399 4.58202 1.31399C5.49919 1.31399 6.34089 1.58159 7.08371 2.10938C7.63757 2.50289 7.93381 2.90592 7.95303 2.93246C8.07565 3.1128 8.27866 3.21862 8.49846 3.2198H8.50192C8.72102 3.2198 8.92419 3.11001 9.04801 2.93099C9.05916 2.91479 10.1924 1.31399 12.4179 1.31399C14.3653 1.31399 15.6718 2.97031 15.6718 4.88564C15.6718 6.13423 15.1211 7.40378 14.0348 8.65903Z" />
</svg>

<svg width="17" height="14" viewBox="0 0 17 14" xmlns="http://www.w3.org/2000/svg"><path d="M12.418 0A5.62 5.62 0 008.5 1.57 5.616 5.616 0 004.582 0C1.915 0 0 2.222 0 4.886c0 1.548.676 3.149 1.956 4.628 1.399 1.616 3.503 3.103 6.255 4.42a.67.67 0 00.578 0c2.752-1.317 4.856-2.804 6.255-4.42C16.324 8.034 17 6.434 17 4.886 17 2.223 15.086 0 12.418 0zm1.617 8.659c-1.23 1.422-3.092 2.751-5.535 3.952-2.443-1.201-4.304-2.53-5.535-3.952C1.88 7.404 1.328 6.134 1.328 4.886c0-1.917 1.307-3.572 3.254-3.572.917 0 1.759.268 2.502.795.554.394.85.797.869.823a.66.66 0 00.545.288h.004c.219 0 .422-.11.546-.289.011-.016 1.144-1.617 3.37-1.617 1.947 0 3.254 1.656 3.254 3.572 0 1.248-.55 2.518-1.637 3.773z"/></svg>
